assets/icons/globe.svg

<svg width="24" height="25" viewBox="0 0 24 25" fill="none" xmlns="http://www.w3.org/2000/svg">
<path d="M21 12.6664C21 7.69582 16.9705 3.66638 12 3.66638C7.02945 3.66638 3.00002 7.69582 3.00002 12.6664C3.00002 17.6369 7.02945 21.6664 12 21.6664C16.9705 21.6664 21 17.6369 21 12.6664ZM23 12.6664C23 18.7415 18.0751 23.6664 12 23.6664C5.92488 23.6664 1.00002 18.7415 1.00002 12.6664C1.00002 6.59125 5.92488 1.66638 12 1.66638C18.0751 1.66638 23 6.59124 23 12.6664Z" fill="white"/>
<path d="M22 11.6664C22.5523 11.6664 23 12.1141 23 12.6664C23 13.2187 22.5523 13.6664 22 13.6664H2.00002C1.44773 13.6664 1.00002 13.2187 1.00002 12.6664C1.00002 12.1141 1.44773 11.6664 2.00002 11.6664H22Z" fill="white"/>
<path d="M12 1.66638C12.2808 1.66638 12.5488 1.78431 12.7383 1.99158C15.4031 4.9089 16.9178 8.69554 17 12.6459V12.6869C16.9178 16.6373 15.4031 20.4238 12.7383 23.3412C12.5488 23.5485 12.2808 23.6664 12 23.6664C11.7192 23.6664 11.4512 23.5485 11.2617 23.3412C8.68024 20.515 7.17789 16.8733 7.01173 13.057L7.00001 12.6869C6.99973 12.6732 6.99973 12.6595 7.00001 12.6459L7.01173 12.2758C7.17789 8.45948 8.68023 4.81775 11.2617 1.99158L11.3359 1.91833C11.518 1.75669 11.7541 1.66638 12 1.66638ZM12 4.22107C10.1274 6.63467 9.06852 9.59257 9.00001 12.6664C9.06852 15.74 10.1277 18.6972 12 21.1107C13.8723 18.6972 14.9306 15.7399 14.999 12.6664C14.9306 9.59258 13.8726 6.63467 12 4.22107Z" fill="white"/>
</svg>

<svg xmlns="http://www.w3.org/2000/svg" width="24" height="25" fill="none" viewBox="0 0 24 25"><path fill="#fff" d="M21 12.666a9 9 0 1 0-18 0 9 9 0 0 0 18 0m2 0c0 6.075-4.925 11-11 11s-11-4.925-11-11 4.925-11 11-11 11 4.925 11 11"/><path fill="#fff" d="M22 11.666a1 1 0 1 1 0 2H2a1 1 0 1 1 0-2z"/><path fill="#fff" d="M12 1.666a1 1 0 0 1 .738.326A16.3 16.3 0 0 1 17 12.646v.04a16.3 16.3 0 0 1-4.262 10.655 1 1 0 0 1-1.476 0 16.3 16.3 0 0 1-4.25-10.284L7 12.687v-.041l.012-.37a16.3 16.3 0 0 1 4.25-10.284l.074-.074A1 1 0 0 1 12 1.666m0 2.555a14.3 14.3 0 0 0-3 8.445 14.3 14.3 0 0 0 3 8.445 14.3 14.3 0 0 0 2.999-8.445A14.3 14.3 0 0 0 12 4.221"/></svg>
